X:365
T: ICH SETZTE MICH NIEDER INS GRUENE GRAS
N: E0205
O: Europa, Mitteleuropa, Deutschland, Harz, Ilsenburg
R: erzaehlendes Volks - Lied, Todes - Ahnung; betrogene Liebe
M: 3/4
L: 1/8
K: F
C2 | F3AF2 | G3F
G2 | A3cAF | G4
C2 | F3AF2 | G3F
G2 | A3cAF | G4
GA | Bdd2cB | Acc2
A2 | G2c2B2 | A4
GA | Bdd2cB | Acc2
A2 | G2c2B2 | A4

